X: 4
T: Sligo Creek
C: Danny Noveck (1988)
R: reel
Z: transcribed to abc by Mary Lou Knack
M: C|
L: 1/8
K: Bm
de |\
"Bm"f2ef dB~B2 | f2ef df~f2 |\
"A"a2ed cAAF | EFAB "F#m"c3e |\
"Bm"f2ef dB~B2 |
f2ef df~f2 |\
"A"a2ed cAec | ABcA "Bm"B2 :: BA |\
"G"GB~B2 Bcde | "D"f2ec defd |
"A"eA ~A2 cAFA | EFAB "F#m"c2BA |\
"G"GB~B2 Bcde | "D"f2ec defd |\
"A"ea ~a2 faec | ABcA "Bm"B2 :|

